X: 9
T: The Mountain Road
R: reel
M: 4/4
L: 1/8
K: Gmaj
|B2dB eBdB|B2dB ABGA|B2dB eBdB|cABG AGEG|
B2dB eBdB|B2dB ABGA|Bd~d2 edBe|dega ~b3a||
|~g3e d2Bd|gfga ~b3a|~g3e d2Bd|cABG AGEf|
~g3e d2Bd|gfga ~b3a|gabg edBd|c2Bc AGEA||


Tune 68	Setting 12522

